X:1
T:Title
%%score { ( 1 2 ) | ( 3 4 ) }
L:1/8
M:4/4
K:F
V:1 treble nm="Grand Piano"
V:2 treble 
V:3 bass 
V:4 bass 
V:1
 z4 z2[Q:1/4=100] z G | A2 A2 z GAB | [FAc]2 [FBd]2 [FAc]2 F-[FG] | %3
 [CFA]2 [CFc][DGB] [CFA]2 [B,EG]2 |[M:3/4] [A,F]6 |[M:1/4] F-[FG] |[M:4/4] A2 A2 z GAB | %7
 [FAc]2 [FBd]2 [FAc]2 F-[FG] | [CFA]2 [CFc][DGB] [CFA]2 [B,EG]2 |[M:3/4] F6 |[M:1/4] fe | %11
[M:4/4] d-[Fd-][Fd-][Fd] [DFB]2 [Bf][FBd] | c-[Ac-][Ac-][Ac] A2 cc | %13
 [Ec][EG][EG][EG] [EG][EG][CF][CEG] | z FFF c-[Ac]f[Ge] |[M:3/4] d4 z2 |[M:1/4] [Bf][FBd] | %17
[M:4/4] c4 z4 | AA[CFc][DGB] [CFA]2 [B,EG]2 |[M:3/4] [A,F]6 |] %20
V:2
 z4 z2 F2 | z4 F2 z2 | z4 z2 .A,2 | x8 |[M:3/4] x6 |[M:1/4] A, z |[M:4/4] z4 F2 z2 | z4 z2 .A,2 | %8
 x8 |[M:3/4] x6 |[M:1/4] x2 |[M:4/4] .F2 z2 z4 | .A2 z2 z4 | x8 | A4 .A2 z2 |[M:3/4] FF FF [DFB]2 | %16
[M:1/4] x2 |[M:4/4] AAAA A2 FG | x8 |[M:3/4] x6 |] %20
V:3
 z4 z2 A,B, | [F,CF]2 [F,CF]2 A,B,[K:treble]FG | F,2 F,2 F,2 z B, | F,2 A,,B,, C,2 C,2 | %4
[M:3/4] F,6 |[M:1/4] z B, |[M:4/4] [F,CF]2 [F,CF]2 A,B,[K:treble]FG | F,2 F,2 F,2 z B, | %8
 F,2 A,,B,, C,2 C,2 |[M:3/4] [F,A,]6 |[M:1/4] [F,A,F][F,A,F] | %11
[M:4/4] [B,,B,][B,,B,][B,,B,][B,,B,] B,,C,[D,D]E, | [F,F][F,F][F,F][F,F] [F,CF]2 [F,A,F][F,A,F] | %13
 [C,C][C,C][C,C][C,C] [C,C][C,C]A,,C, | [F,CF][F,C][F,C][F,C] [F,C][F,C][F,A,F][F,A,] | %15
[M:3/4] [B,,B,][B,,B,] [B,,B,][B,,B,] B,,C, |[M:1/4] [D,D]E, | %17
[M:4/4] [F,F][F,F][F,F][F,F] [F,CF]2 [F,A,][F,B,F] | [F,CF][F,CF]A,,B,, C,2 C,2 |[M:3/4] F,6 |] %20
V:4
 z4 z2 F,2 | z4 F,2[K:treble] [F,C]2 | z4 z2 F,2 | x8 |[M:3/4] x6 |[M:1/4] F,2 | %6
[M:4/4] z4 F,2[K:treble] [F,C]2 | z4 z2 F,2 | x8 |[M:3/4] x6 |[M:1/4] x2 |[M:4/4] x8 | x8 | x8 | %14
 x8 |[M:3/4] x6 |[M:1/4] x2 |[M:4/4] x8 | x8 |[M:3/4] x6 |] %20

